assets/svg/diamond.svg

<?xml version="1.0" encoding="UTF-8"?>
<svg width="1000px" height="1000px" viewBox="0 0 1000 1000" version="1.1" xmlns="http://www.w3.org/2000/svg" xmlns:xlink="http://www.w3.org/1999/xlink">
    <!-- Generator: sketchtool 52.4 (67378) - http://www.bohemiancoding.com/sketch -->
    <title>diamond</title>
    <desc>Created with sketchtool.</desc>
    <g id="新版图标" stroke="none" stroke-width="1" fill="none" fill-rule="evenodd">
        <g id="diamond" fill="#323233">
            <g id="直角-积分管理-面">
                <path d="M65.6223649,432.796323 C53.7070702,419.672342 52.2303633,401.195542 61.9340182,386.659023 L195.252014,186.062836 C203.307934,174.010831 217.768129,166.649932 233.360043,166.666695 L766.639845,166.666695 C782.24935,166.666695 796.714432,174.059356 804.746896,186.145771 L938.068801,386.741958 C947.769524,401.274947 946.29184,419.751748 934.376546,432.879258 L534.418649,874.189987 C525.967898,883.508675 513.322557,888.906491 499.980398,888.888846 C486.638239,888.875611 474.009512,883.446915 465.580262,874.107052 L65.6223649,432.796323 Z M333.333333,333.333333 L333.333333,388.888889 L666.666667,388.888889 L666.666667,333.333333 L333.333333,333.333333 Z" id="Fill-1"></path>
            </g>
        </g>
    </g>
</svg>

<svg width="1000" height="1000" xmlns="http://www.w3.org/2000/svg"><path d="M65.622 432.796c-11.915-13.124-13.392-31.6-3.688-46.137l133.318-200.596c8.056-12.052 22.516-19.413 38.108-19.396h533.28c15.61 0 30.074 7.392 38.107 19.479l133.322 200.596c9.7 14.533 8.223 33.01-3.692 46.137L534.419 874.19c-8.451 9.319-21.096 14.716-34.439 14.699-13.342-.013-25.97-5.442-34.4-14.782L65.622 432.797zm267.711-99.463v55.556h333.334v-55.556H333.333z" fill="#323233" fill-rule="evenodd"/></svg>
